svgs/google_chrome_canary.svg

<svg width="24" height="24" viewBox="0 0 24 24" fill="none" xmlns="http://www.w3.org/2000/svg">
<path d="M6.87871 10.6332C7.18066 9.50328 7.8474 8.50457 8.77549 7.79168C9.70303 7.07934 10.8397 6.69287 12.0096 6.69176H20.4787C19.6262 5.32881 18.4579 4.19163 17.0716 3.37698C15.6859 2.56233 14.1233 2.09467 12.5179 2.01292C10.9125 1.93118 9.311 2.23813 7.84907 2.90821C6.3877 3.57772 5.10928 4.59034 4.12335 5.85986L6.87871 10.6332Z" fill="#FFF1C0"/>
<path fill-rule="evenodd" clip-rule="evenodd" d="M15.7631 12.0095C15.7631 14.0826 14.0827 15.7631 12.0096 15.7631C9.93657 15.7631 8.2561 14.0826 8.2561 12.0095C8.2561 9.93648 9.93657 8.25601 12.0096 8.25601C14.0827 8.25601 15.7631 9.93648 15.7631 12.0095ZM13 12C13.5523 12 14 11.5523 14 11C14 10.4477 13.5523 10 13 10C12.4477 10 12 10.4477 12 11C12 11.5523 12.4477 12 13 12Z" fill="#FFF1C0"/>
<path d="M17.1278 10.5639C16.8827 9.69572 16.419 8.89998 15.7759 8.25601H21.2844C21.8894 9.74463 22.1263 11.3573 21.9745 12.9576C21.8232 14.5569 21.2877 16.0967 20.4147 17.4457C19.5411 18.7948 18.355 19.9131 16.9576 20.706C15.5596 21.499 13.9909 21.9427 12.3849 22L16.6167 14.6704L16.6106 14.667C16.8369 14.2773 17.0109 13.863 17.1309 13.4346L20 12L17.1278 10.5639Z" fill="#FFF1C0"/>
<path d="M9.97327 16.9252C11.0548 17.3729 12.2549 17.4491 13.3842 17.1416L10.6289 21.9127C9.03628 21.693 7.51986 21.0919 6.20863 20.161C4.8974 19.2302 3.83029 17.9968 3.09794 16.5649C2.49506 15.3875 2.13374 14.1047 2.0307 12.7919H6.31902L7.40308 14.6698L7.40809 14.667C7.98975 15.683 8.8917 16.477 9.97327 16.9252Z" fill="#FFF1C0"/>
<path d="M5.41583 11.2272L3.16522 7.32846C2.52322 8.53902 2.13798 9.86624 2.03081 11.2272H5.41583Z" fill="#FFF1C0"/>
</svg>

<svg xmlns="http://www.w3.org/2000/svg" width="24" height="24" fill="none" viewBox="0 0 24 24"><path fill="#FFF1C0" d="M6.879 10.633a5.313 5.313 0 0 1 5.13-3.941h8.47A9.986 9.986 0 0 0 4.123 5.86l2.756 4.773"/><path fill="#FFF1C0" fill-rule="evenodd" d="M15.763 12.01a3.753 3.753 0 1 1-7.507 0 3.753 3.753 0 0 1 7.507 0M13 12a1 1 0 1 0 0-2 1 1 0 0 0 0 2" clip-rule="evenodd"/><path fill="#FFF1C0" d="M17.128 10.564a5.307 5.307 0 0 0-1.352-2.308h5.508a9.983 9.983 0 0 1-.87 9.19A9.995 9.995 0 0 1 12.385 22l4.233-7.33-.006-.003a5.3 5.3 0 0 0 .52-1.232L20 12zm-7.155 6.361a5.288 5.288 0 0 0 3.411.217l-2.755 4.77a9.996 9.996 0 0 1-8.598-9.12h4.288l1.084 1.878.005-.003a5.288 5.288 0 0 0 2.565 2.258m-4.557-5.698-2.25-3.899a9.996 9.996 0 0 0-1.135 3.9h3.385"/></svg>
